X:1
T:Title
%%score { ( 1 3 ) | 2 }
L:1/8
M:4/4
K:G
V:1 treble nm="Grand Piano"
V:3 treble 
V:2 bass 
V:1
 z4 z2[Q:1/4=100] [B,D][B,G] | [DB]2 [DB]2 A2 B>A | [B,G]2 [B,G]2 [B,D]2 [B,G][DB] | %3
 [Gd]2 [Gd]2 z G, c2 | B6 B>c | B2 A2 c2 A>B |[M:3/4] A2 G2 B2 |[M:1/4] D>D | %8
[M:4/4] E2 [CEA]2 [B,DG]2 [A,DF]2 |[M:3/4] [B,DG]6 |[M:1/4] z z/ G/ |[M:4/4] G2 .D>B B2 .G>d | %12
[M:3/4] d4 B2 |[M:1/4] BB |[M:4/4] [CEc]2 [EGc]2 [DGc]>[DGB] [DBd]>[DGB] | [DFA]6 z z/ A/ | %16
 A2 .E>c c2 .A>e | e4 c2 D[D,D] | [Dd]2 [=Fd]>[Fd] [Ed][Ec][DB][DA] |[M:3/4] [B,DG]6 |] %20
V:2
 z4 z2 [G,,G,][G,,G,] | [G,,G,]2 [B,,G,]2 [D,F,C]2 [D,F,D]>[D,F,C] | %2
 [G,,G,]2 [G,,D,]2 [G,,G,]2 [G,,D,][G,,G,] | [G,,B,]2 [B,,G,]2 [D,F,]E, [F,A,D]2 | %4
 [G,D]6 [E,^G,D]>[E,G,E] | [A,D]2 [A,C]2 [A,E]2 [D,F,C]>[D,F,D] |[M:3/4] [G,C]2 [G,B,]2 [G,D]2 | %7
[M:1/4] [B,,G,]>[B,,G,] |[M:4/4] [C,G,C]2 C,2 D,2 D,2 |[M:3/4] G,,6 |[M:1/4] z z/ G,/ | %11
[M:4/4] G,2 .D,>B, B,2 .G,>[K:treble][B,=F] |[M:3/4] [G,B,=F]4 [G,DF]2 |[M:1/4] [G,D=F][G,DF] | %14
[M:4/4][K:bass] C,2 C,2 G,>G, G,>G, | D,6 z z/ A,/ | A,2 .E,>[K:treble]C C2 .A,>[A,CA] | %17
 [A,CA]4 [A,EA]2[K:bass] D,C, | [B,,G,]2 [B,,G,]>[B,,G,] [B,,G,][C,G,][D,F,][D,C] | %19
[M:3/4] [G,,G,]6 |] %20
V:3
 x8 | x8 | x8 | z4 [Dc]2 z2 | x8 | x8 |[M:3/4] x6 |[M:1/4] x2 |[M:4/4] x8 |[M:3/4] x6 |[M:1/4] x2 | %11
[M:4/4] x8 |[M:3/4] x6 |[M:1/4] x2 |[M:4/4] x8 | x8 | x8 | x8 | x8 |[M:3/4] x6 |] %20

